X: 11387
T: Early In The Morning
R: hornpipe
M: 4/4
K: Gmajor
|:D2|DGGF GBAG|FGAB c2Bc|defd cAGF|D2DE FAGF|
DGGF GBAG|FGAB c2Bc|defd cAFG|A2GF G2:|
|:Bc|d2dc BGBd|cBAB c2Bc|dfec dcBd|cBAG FAGF|
DGGF GBAG|FGAB c2Bc|defd cAFG|A2GF G2:|

